X:1
T:Title
%%score 1 2
L:1/8
M:4/2
K:F
V:1 bass nm="Part_1"
V:2 bass nm="Part_2"
V:1
 z16 | z4 G,6 F,2 _E,2 D,2 | F,3 F,, F,,4 z2 G,4 F,2 | %3
 _E,2 D,2 F,>E,D,>C, B,,>A,,G,,>F,, _E,,>E,D,>E, | B,,>B,A,>B, F,2 _E,2 F,6 A,,2 | %5
 B,,4 z4 z2 C,2 E,2 G,2 | D,3 D, D,2 z2 z4 z2 E,2 | G,2 B,D, F,2 A,2 A,3 B, A,>F,E,>B,, | %8
 A,,2 G,,2 A,,3 A,, D,4 z4 | z16 | z4 D,2 D,C, B,,2 A,,2 F,2 F,E, | %11
 D,2 C,=B,, C,2 _E,2 D,2 D,^F, G,2 B,B,, | C,2 _E,2 D,>E,F,>G, A,>A,,B,,>C, D,4 | G,,4 z4 z8 | %14
 z2 G,2 E,>F,G,>A, ^F,3 D, D,4 | z8 z2 F,2 D,>E,F,>G, | E,3 C, C,2 C,2 F,3 E, D,2 D,2 | %17
 G,3 F, E,2 F,4 ^C,D, D,4 | G,,4 z4 z8 | z2 B,,2 _E,3 D, C,2 C,2 F,3 E, | %20
 D,2 _E,4 =B,,C, C,2 E,>F, G,2 A,>B, | C2 C,>D, _E,4 D,8 | z16 | z4 z2 D,4 A,,2 A,,4 | %24
 C,2 B,,2 A,,4 A,,4 z4 | z8 z4 B,A,G,_E, | F,_E,D,B,, E,2 G,2 F,4 B,,4 | z16 | %28
 G,F,_E,C, D,C,B,,G,, C,2 E,2 D,4 | G,,4 z4 z4 B,A,G,_E, | F,_E,D,B,, E,2 G,2 F,4 B,,4 | %31
 C,>_E,D,>C, G,>B,,A,,>G,, D,>F,E,>D, E,2 G,2 | D,>E,^F,>G, A,2 G,2 A,>A,,B,,>C, D,2 C,2 | %33
 D,8 G,,8- | G,,16 |] %35
V:2
 D6 C2 B,2 A,2 C3 C | C,4 G,6 F,2 _E,2 D,2 | F,3 F,, F,,6 G,4 F,2 | %3
 _E,2 D,2 F,2 D,2 B,,2 G,,2 E,4 | B,,4 F,2 _E,2 F,6 A,,2 | B,,2 B,,2 D,2 F,2 C,2 C,2 E,2 G,2 | %6
 D,3 D, D,2 B,,2 D,2 F,2 C,4- | C,2 G,,2 D,2 F,,2 A,,8- | A,,2 G,,2 A,,4 D,4 G,2 G,F, | %9
 _E,2 D,2 B,2 B,A, G,2 F,F, G,2 B,2 | A,4 D,2 D,C, B,,2 A,,2 F,2 F,E, | %11
 D,2 C,=B,, C,2 _E,2 D,2 D,^F, G,2 B,B,, | C,2 _E,2 D,6 B,,2 D,4 | G,,6 C2 A,>B,C>D =B,3 G, | %14
 G,2 G,2 E,4 ^F,3 D, D,2 D2 | G,>A,=B,>C A,3 F, F,2 F,2 D,4 | E,3 C, C,2 C,2 F,3 E, D,2 D,2 | %17
 G,3 F, E,2 F,4 ^C,D, D,4 | G,,2 G,,2 C,3 B,, A,,2 A,,2 D,3 C, | B,,2 B,,2 _E,3 D, C,2 C,2 F,3 E, | %20
 D,2 _E,4 =B,,C, C,8- | C,4 _E,4 D,8 | z2 G,4 D,2 D,4 F,2 _E,2 | D,4 D,2 D,4 A,,2 A,,4 | %24
 C,2 B,,2 A,,4 A,,4 B,A,G,_E, | F,_E,D,B,, E,2 G,2 F,4 B,A,G,E, | F,_E,D,B,, E,2 G,2 F,4 B,,4 | %27
 G,F,_E,C, D,C,B,,G,, C,2 E,2 D,4 | G,F,_E,C, D,C,B,,G,, C,2 E,2 D,4 | %29
 G,,4 B,A,G,_E, F,E,D,B,, B,A,G,E, | F,_E,D,B,, E,2 G,2 F,4 B,,4 | C,4 G,,4 D,4 _E,2 G,2 | %32
 D,8- D,6 C,2 | D,8 G,,8- | G,,16 |] %35

